svgs/light/strikethrough.svg

<svg xmlns="http://www.w3.org/2000/svg" viewBox="0 0 512 512"><!--! Font Awesome Pro 6.3.0 by @fontawesome - https://fontawesome.com License - https://fontawesome.com/license (Commercial License) Copyright 2023 Fonticons, Inc. --><path d="M496 256h-184.3c-16.93-5.691-34.37-10.77-51.52-15.49L241.3 235.3C159.1 212 119.3 189.8 129.6 132.5c9.484-52.77 72.56-78.39 160.7-65.03c18.53 2.796 40.34 8.48 68.61 17.9c8.453 2.796 17.45-1.734 20.23-10.1c2.797-8.387-1.734-17.45-10.11-20.23C339 44.1 315.5 38.91 295.1 35.81c-106.9-16.1-184.2 19.65-197 91.02C83.89 205.9 145.4 238.1 199.2 256H16c-8.844 0-16 7.162-16 16s7.156 15.98 16 15.98h480c8.844 0 16-7.144 16-15.98S504.8 256 496 256zM382.4 351.1c1.51 8.233 1.887 17.15 .0156 27.57c-9.469 52.79-72.61 78.26-160.8 65.03c-28.48-4.139-61.03-15.43-89.75-25.38l-14.66-5.06c-8.359-2.889-17.45 1.609-20.31 9.964c-2.86 8.371 1.609 17.46 9.969 20.3l14.5 4.998c30.08 10.43 64.16 22.26 95.56 26.82C233.9 478.8 250.2 480 265.5 480c81.2 0 137.6-34.8 148.4-94.82c2.197-12.23 2.451-23.16 1.422-33.22H382.4z"/></svg>

<svg xmlns="http://www.w3.org/2000/svg" viewBox="0 0 512 512"><!-- Font Awesome Pro 6.0.0-alpha2 by @fontawesome - https://fontawesome.com License - https://fontawesome.com/license (Commercial License) --><path d="M496 256.009H311.734C294.805 250.318 277.361 245.237 260.219 240.516L241.25 235.253C159.109 212.029 119.297 189.758 129.594 132.488C139.078 79.715 202.156 54.102 290.328 67.455C308.859 70.251 330.672 75.936 358.938 85.353C367.391 88.149 376.391 83.62 379.172 75.248C381.969 66.862 377.438 57.803 369.062 55.023C339 44.997 315.5 38.906 295.094 35.813C188.156 19.711 110.891 55.461 98.094 126.834C83.891 205.893 145.371 238.119 199.246 256.009H16C7.156 256.009 0 263.162 0 272.002S7.156 287.994 16 287.994H496C504.844 287.994 512 280.841 512 272.002S504.844 256.009 496 256.009ZM382.391 351.965C383.9 360.198 384.277 369.117 382.406 379.531C372.938 432.319 309.797 457.791 221.578 444.563C193.094 440.424 160.547 429.133 131.828 419.184L117.172 414.124C108.812 411.235 99.719 415.733 96.859 424.088C94 432.459 98.469 441.549 106.828 444.391L121.328 449.389C151.406 459.822 185.484 471.644 216.891 476.205C233.906 478.766 250.172 480 265.531 480C346.734 480 403.125 445.203 413.906 385.184C416.104 372.952 416.357 362.021 415.328 351.965H382.391Z"/></svg>
